img/pycon_nove_logo.svg

<?xml version="1.0" encoding="UTF-8"?>
<svg width="460px" height="225px" viewBox="0 0 460 225" version="1.1" xmlns="http://www.w3.org/2000/svg" xmlns:xlink="http://www.w3.org/1999/xlink">
    <!-- Generator: Sketch 48.2 (47327) - http://www.bohemiancoding.com/sketch -->
    <title>pycon_nove_logo</title>
    <desc>Created with Sketch.</desc>
    <defs></defs>
    <g id="Artboard" stroke="none" stroke-width="1" fill="none" fill-rule="evenodd">
        <g id="pycon_nove_logo">
            <path d="M239.37,90.43 L239.37,110.5 L228.81,110.5 L228.81,55.79 L247.52,55.79 C250.268281,55.7523282 253.002229,56.1921961 255.6,57.09 C257.865455,57.8750268 259.952479,59.102088 261.74,60.7 C263.431322,62.2398048 264.765776,64.1305649 265.65,66.24 C266.580409,68.5175631 267.03965,70.9600442 267,73.42 C267.024008,75.7575426 266.557287,78.0741152 265.63,80.22 C264.729778,82.2771325 263.396065,84.1156776 261.72,85.61 C259.926088,87.18474 257.839771,88.3909984 255.58,89.16 C252.979388,90.0443988 250.246626,90.4773115 247.5,90.44 L239.37,90.43 Z M239.37,81.86 L247.52,81.86 C248.854453,81.8923885 250.182461,81.6648272 251.43,81.19 C252.470419,80.7799918 253.41137,80.1526911 254.19,79.35 C254.92431,78.5803133 255.486725,77.6634068 255.84,76.66 C256.205515,75.6431545 256.391615,74.5705432 256.39,73.49 C256.399105,72.2782195 256.213404,71.0728505 255.84,69.92 C255.500837,68.8417354 254.938668,67.8468659 254.19,67 C253.42914,66.1375227 252.486521,65.4544657 251.43,65 C250.188753,64.4990631 248.858122,64.2574397 247.52,64.29 L239.37,64.29 L239.37,81.86 Z M295.72,93.44 L296.92,97.8 L307.74,69.8 L319.27,69.8 L298.64,116.54 C298.124692,117.687672 297.540287,118.803051 296.89,119.88 C296.149811,121.110773 295.244756,122.234521 294.2,123.22 C293.044012,124.296976 291.715587,125.172453 290.27,125.81 C288.543014,126.548058 286.67752,126.906151 284.8,126.86 C284.3,126.86 283.8,126.86 283.41,126.8 C283.02,126.74 282.57,126.71 282.17,126.65 C281.77,126.59 281.38,126.51 280.99,126.43 C280.6,126.35 280.18,126.23 279.73,126.11 L281.01,118.11 C281.43,118.11 282.01,118.11 282.64,118.17 C283.27,118.23 283.84,118.23 284.24,118.23 C285.037877,118.241165 285.81509,117.976206 286.44,117.48 C287.053056,117.00354 287.601052,116.448821 288.07,115.83 C288.471104,115.305905 288.835314,114.754577 289.16,114.18 C289.44,113.68 289.62,113.43 289.72,113.43 L292.24,108.69 L275.06,69.85 L286.48,69.85 L295.72,93.44 Z M365.9,93.37 C365.769049,95.9394258 365.162093,98.4621931 364.11,100.81 C363.145459,102.9466 361.757463,104.865301 360.03,106.45 C358.261246,108.0429 356.190177,109.263777 353.94,110.04 C351.428196,110.904805 348.78633,111.331022 346.13,111.3 C343.166326,111.356895 340.227597,110.748647 337.53,109.52 C335.067831,108.364495 332.907731,106.652847 331.22,104.52 C329.434106,102.220934 328.106699,99.6000699 327.31,96.8 C326.391356,93.5716085 325.950015,90.2261764 326,86.87 L326,79.5 C325.958553,76.1128961 326.440915,72.7397379 327.43,69.5 C328.280962,66.6861685 329.658719,64.0596072 331.49,61.76 C333.212346,59.6375771 335.389204,57.928897 337.86,56.76 C340.489686,55.5390082 343.360994,54.9271461 346.26,54.97 C348.980821,54.9280666 351.688091,55.3612299 354.26,56.25 C358.776823,57.7999521 362.39236,61.2438426 364.16,65.68 C365.151804,68.139019 365.758922,70.736136 365.96,73.38 L355.41,73.38 C355.340253,71.9291045 355.095137,70.4919857 354.68,69.1 C354.344499,67.9809017 353.771458,66.9473796 353,66.07 C352.236599,65.2398996 351.282404,64.6083456 350.22,64.23 C348.933407,63.7900969 347.579393,63.5802247 346.22,63.61 C343.223001,63.4985267 340.423153,65.1001016 339,67.74 C338.136421,69.2949527 337.544589,70.9859006 337.25,72.74 C336.853002,74.954114 336.665506,77.2007093 336.69,79.45 L336.69,86.89 C336.69,92.2766667 337.446667,96.26 338.96,98.84 C340.427581,101.395462 343.218972,102.895834 346.16,102.71 C348.541037,102.839353 350.881236,102.052131 352.7,100.51 C354.3,99.0433333 355.19,96.67 355.37,93.39 L365.9,93.37 Z M375,89.8 C374.974384,87.0117175 375.406803,84.2381508 376.28,81.59 C377.06331,79.1651236 378.328642,76.9235805 380,75 C381.661496,73.1302323 383.708478,71.6427591 386,70.64 C391.225589,68.5329167 397.064411,68.5329167 402.29,70.64 C404.582636,71.6408146 406.630009,73.1285723 408.29,75 C409.965698,76.9125041 411.237804,79.1437921 412.03,81.56 C412.903197,84.2081508 413.335616,86.9817175 413.31,89.77 L413.31,90.56 C413.337646,93.3615143 412.90523,96.1485682 412.03,98.81 C411.238054,101.222057 409.973434,103.45214 408.31,105.37 C406.655884,107.242933 404.606578,108.725264 402.31,109.71 C399.740609,110.786834 396.975504,111.318062 394.19,111.27 C391.388259,111.318608 388.60672,110.787494 386.02,109.71 C383.72539,108.721795 381.676795,107.239978 380.02,105.37 C378.345648,103.456538 377.073706,101.225538 376.28,98.81 C375.40801,96.1581161 374.975635,93.3814623 375,90.59 L375,89.8 Z M385.44,90.59 C385.430987,92.1996233 385.595267,93.8055406 385.93,95.38 C386.211742,96.7630629 386.732908,98.0862821 387.47,99.29 C388.894166,101.639576 391.484991,103.026971 394.23,102.91 C395.609654,102.93958 396.971445,102.593948 398.17,101.91 C399.270679,101.260972 400.194556,100.350833 400.86,99.26 C401.584181,98.0520246 402.098142,96.7299269 402.38,95.35 C402.714656,93.7755286 402.878935,92.1696196 402.87,90.56 L402.87,89.8 C402.877687,88.2201948 402.713386,86.6442464 402.38,85.1 C402.09448,83.7211532 401.580751,82.3996524 400.86,81.19 C398.520323,77.6736862 393.888275,76.5167574 390.17,78.52 C389.060904,79.1736794 388.130098,80.0907466 387.46,81.19 C386.754146,82.4006448 386.260372,83.7230115 386,85.1 C385.666535,86.6442339 385.502233,88.2201909 385.51,89.8 L385.44,90.59 Z M432.4,69.85 L433.04,75.49 C434.4162,73.5264738 436.230799,71.9104532 438.34,70.77 C440.467267,69.6437923 442.843201,69.0695796 445.25,69.1 C447.164194,69.0776251 449.068176,69.3819916 450.88,70 C452.565133,70.5872597 454.082089,71.5756837 455.3,72.88 C456.621724,74.3388889 457.608136,76.0693765 458.19,77.95 C458.920952,80.3909999 459.258512,82.9328297 459.19,85.48 L459.19,110.48 L448.78,110.48 L448.78,85.63 C448.823527,84.2759231 448.641026,82.9240622 448.24,81.63 C447.940592,80.6893089 447.403228,79.8419272 446.68,79.17 C445.982431,78.5560695 445.144434,78.1233334 444.24,77.91 C443.182081,77.6585082 442.09733,77.5376072 441.01,77.55 C439.425899,77.5030318 437.85714,77.8719488 436.46,78.62 C435.221957,79.3496493 434.189649,80.3819573 433.46,81.62 L433.46,110.5 L422.93,110.5 L422.93,69.85 L432.4,69.85 Z M264.21,188.37 L253.69,188.37 L238.47,153.09 L238.47,188.37 L227.84,188.37 L227.84,133.66 L238.47,133.66 L253.57,168.79 L253.57,133.66 L264.17,133.66 L264.21,188.37 Z M275.26,167.67 C275.234384,164.881718 275.666803,162.108151 276.54,159.46 C277.332952,157.044128 278.604976,154.812984 280.28,152.9 C281.941496,151.030232 283.988478,149.542759 286.28,148.54 C291.505589,146.432917 297.344411,146.432917 302.57,148.54 C304.862636,149.540815 306.910009,151.028572 308.57,152.9 C310.245698,154.812504 311.517804,157.043792 312.31,159.46 C313.183197,162.108151 313.615616,164.881718 313.59,167.67 L313.59,168.46 C313.617646,171.261514 313.18523,174.048568 312.31,176.71 C311.518054,179.122057 310.253434,181.35214 308.59,183.27 C306.935884,185.142933 304.886578,186.625264 302.59,187.61 C300.020609,188.686834 297.255504,189.218062 294.47,189.17 C291.668259,189.218608 288.88672,188.687494 286.3,187.61 C284.00539,186.621795 281.956795,185.139978 280.3,183.27 C278.625648,181.356538 277.353706,179.125538 276.56,176.71 C275.68477,174.048568 275.252354,171.261514 275.28,168.46 L275.26,167.67 Z M285.7,168.46 C285.691065,170.06962 285.855344,171.675529 286.19,173.25 C286.471742,174.633063 286.992908,175.956282 287.73,177.16 C289.154166,179.509576 291.744991,180.896971 294.49,180.78 C295.869654,180.80958 297.231445,180.463948 298.43,179.78 C299.530679,179.130972 300.454556,178.220833 301.12,177.13 C301.844181,175.922025 302.358142,174.599927 302.64,173.22 C302.97458,171.645517 303.138858,170.039616 303.13,168.43 L303.13,167.64 C303.137687,166.060195 302.973386,164.484246 302.64,162.94 C302.35448,161.561153 301.840751,160.239652 301.12,159.03 C298.780323,155.513686 294.148275,154.356757 290.43,156.36 C289.320904,157.013679 288.390098,157.930747 287.72,159.03 C286.98676,160.255085 286.472413,161.598478 286.2,163 C285.866535,164.544234 285.702233,166.120191 285.71,167.7 L285.7,168.46 Z M338.73,176.31 L339.26,179.24 L339.78,176.42 L348.72,147.71 L359.61,147.71 L344.17,188.37 L334.36,188.37 L318.84,147.72 L329.74,147.72 L338.73,176.31 Z M385.93,189.12 C383.014103,189.159829 380.117886,188.636949 377.4,187.58 C374.954792,186.62505 372.719622,185.201743 370.82,183.39 C368.991764,181.626489 367.551135,179.501305 366.59,177.15 C365.593492,174.713107 365.090444,172.102697 365.11,169.47 L365.11,168 C365.075131,165.09728 365.573388,162.212816 366.58,159.49 C367.488674,157.029908 368.879161,154.775891 370.67,152.86 C372.428341,151.003352 374.553242,149.532267 376.91,148.54 C379.394469,147.497372 382.065757,146.973323 384.76,147 C387.440605,146.956044 390.102894,147.44906 392.59,148.45 C394.806984,149.36445 396.794402,150.757691 398.41,152.53 C400.048197,154.363765 401.284678,156.519942 402.04,158.86 C402.892355,161.498375 403.311126,164.257535 403.28,167.03 L403.28,171.46 L375.71,171.46 C375.891727,172.781823 376.304694,174.061343 376.93,175.24 C378.134211,177.50217 380.137756,179.234774 382.55,180.1 C383.83287,180.56051 385.187021,180.790716 386.55,180.78 C387.57734,180.779974 388.602216,180.679496 389.61,180.48 C390.607101,180.285177 391.582028,179.990354 392.52,179.6 C393.435104,179.215581 394.303929,178.729173 395.11,178.15 C395.902121,177.587285 396.609337,176.913746 397.21,176.15 L402.43,181.79 C401.700497,182.799389 400.847158,183.713201 399.89,184.51 C398.769728,185.454116 397.532967,186.250617 396.21,186.88 C394.703039,187.600614 393.124317,188.160373 391.5,188.55 C389.672885,188.962531 387.8028,189.153905 385.93,189.12 Z M384.69,155.42 C383.582461,155.405853 382.483586,155.616783 381.46,156.04 C380.488632,156.45228 379.613483,157.061819 378.89,157.83 C378.112916,158.643891 377.474457,159.579623 377,160.6 C376.473799,161.751324 376.094166,162.964133 375.87,164.21 L393,164.21 L393,163.38 C392.956277,162.312296 392.740153,161.258692 392.36,160.26 C392.004128,159.311419 391.45599,158.446655 390.75,157.72 C390.025935,156.979073 389.158214,156.393787 388.2,156 C387.078616,155.581128 385.886524,155.384144 384.69,155.42 Z" id="Shape" fill="#000000" fill-rule="nonzero"></path>
            <path d="M87.55,45 L87.55,93.81 C87.5499626,94.1927504 87.7033652,94.5595406 87.9758835,94.8283 C88.2484018,95.0970594 88.6172871,95.2453532 89,95.24 L136.22,95.2401401 L136.22,43.48 L89,43.48 C88.6038988,43.4823781 88.2257644,43.645597 87.9523509,43.9322097 C87.6789374,44.2188225 87.5337144,44.6042266 87.55,45 Z" id="Shape"></path>
            <path d="M44.06,177 L44.06,148.339948 L39.06,148.34 C25.9004471,148.317233 13.8747639,155.784795 8.06,167.59 C7.07575674,169.617879 7.20339222,172.009376 8.39788764,173.920975 C9.59238305,175.832574 11.6858902,176.995661 13.94,177 L44.06,177 Z M172.29,183 L172.29,138.72 L143.57,138.72 L143.57,180 C143.564489,184.885436 139.605436,188.844489 134.72,188.85 L87.54,188.85 L87.54,217.56 L137.65,217.56 C138.37,217.56 139.01,217.56 139.65,217.5 C157.939743,216.437311 172.241537,201.320526 172.29,183 Z M143.57,7.9 L143.57,95.24 L161.64,95.24 C165.234136,95.236902 168.813663,95.6973669 172.29,96.61 L172.29,42 C172.29,41.28 172.29,40.63 172.22,40 C171.296338,23.9396348 159.422533,10.6359997 143.57,7.9 Z" id="Shape" fill="#FD51D3" fill-rule="nonzero"></path>
            <path d="M80.16,217.1 L80.16,182.93 C80.1249309,166.107339 68.0215672,151.735912 51.45,148.84 L51.45,183 C51.476154,199.827928 63.5825619,214.207186 80.16,217.1 Z M161.64,102.62 L89,102.62 C84.1366559,102.614489 80.1955109,98.6733441 80.19,93.81 L80.19,45 C80.1678483,40.1106217 84.1106491,36.1275425 89,36.1 L136.19,36.1 L136.19,7.39 L86.09,7.39 C85.36,7.39 84.72,7.39 84.09,7.45 C66.5356371,8.44273127 52.5189025,22.4465591 51.51,40 C51.46,40.66 51.44,41.31 51.44,42 L51.44,96.69 C51.44,97.41 51.44,98.06 51.51,98.69 C52.5287871,116.239936 66.5213285,130.249667 84.07,131.29 C84.72,131.29 85.36,131.35 86.07,131.35 L186.77,131.35 C189.03304,131.343756 191.132542,130.169766 192.322797,128.245012 C193.513052,126.320257 193.625424,123.917439 192.62,121.89 C186.812226,110.085157 174.796158,102.610992 161.64,102.62 Z M157.93,121.69 C154.179987,121.69 151.14,118.650013 151.14,114.9 C151.14,111.149987 154.179987,108.11 157.93,108.11 C161.680013,108.11 164.72,111.149987 164.72,114.9 C164.72,118.650013 161.680013,121.69 157.93,121.69 Z" id="Shape" fill="#3DFFD2" fill-rule="nonzero"></path>
            <path d="M199.23,118.58 C195.056693,110.139176 188.168013,103.345586 179.67,99.29 L179.67,42 C179.67,41.11 179.67,40.29 179.59,39.55 C178.438536,19.5926956 163.38022,3.21259486 143.59,0.39 C141.624835,0.12198557 139.643339,-0.00833204045 137.66,-4.88433079e-17 L86.09,-4.88433079e-17 C85.18,-4.88433079e-17 84.36,-4.88433079e-17 83.64,0.08 C62.3744533,1.31076262 45.3976971,18.2660292 44.14,39.53 C44.08,40.32 44.06,41.14 44.06,42.02 L44.06,96.69 C44.06,97.58 44.06,98.4 44.14,99.14 C45.3756422,120.401645 62.3296182,137.372811 83.59,138.63 C84.36,138.69 85.18,138.72 86.09,138.72 L136.19,138.72 L136.19,180 C136.179129,180.805682 135.525737,181.454629 134.72,181.46 L87.52,181.46 C86.7962924,161.113546 71.6036439,144.206618 51.45,141.32 C50.64,141.25 48,141 48,141 C47.11,140.95 39.09,140.92 39.09,140.92 C23.1178237,140.892836 8.52293375,149.959359 1.47,164.29 C-0.680565897,168.608168 -0.443887053,173.731623 2.0956272,177.833132 C4.63514146,181.934641 9.1159448,184.430279 13.94,184.43 L44.09,184.43 C44.8097127,204.778067 60.0043268,221.687182 80.16,224.57 C82.6070732,224.883257 85.0731867,225.023605 87.54,224.99 L137.65,224.99 C138.54,224.99 139.35,224.99 140.09,224.92 C162.305,223.637863 179.664584,205.251968 179.67,183 L179.67,138.72 L186.77,138.72 C191.589994,138.711244 196.06347,136.213137 198.599379,132.114164 C201.135288,128.01519 201.373768,122.897022 199.23,118.58 Z M192.32,128.23 C191.148802,130.172528 189.038185,131.351432 186.77,131.33 L86.09,131.33 C85.36,131.33 84.72,131.33 84.09,131.27 C66.5413285,130.229667 52.5487871,116.219936 51.53,98.67 C51.48,98.06 51.46,97.41 51.46,96.67 L51.46,42 C51.46,41.29 51.46,40.64 51.53,40 C52.539398,22.4429616 66.5617352,8.43783499 84.12,7.45 C84.72,7.45 85.36,7.39 86.12,7.39 L136.22,7.39 L136.22,36.1 L89,36.1 C86.6467029,36.1052882 84.3921892,37.0465815 82.7337902,38.7162365 C81.0753912,40.3858916 80.1493697,42.6467209 80.16,45 L80.16,93.81 C80.1626481,96.1509455 81.0958115,98.3948125 82.7539221,100.047296 C84.4120328,101.69978 86.659059,102.62531 89,102.62 L161.67,102.62 C174.828877,102.599612 186.853404,110.066456 192.67,121.87 C193.687389,123.902487 193.554271,126.321425 192.32,128.23 Z M87.54,217.61 L87.54,188.9 L134.72,188.9 C139.605436,188.894489 143.564489,184.935436 143.57,180.05 L143.57,138.72 L172.29,138.72 L172.29,183 C172.277611,201.358482 157.948489,216.520948 139.62,217.57 C139.01,217.57 138.37,217.63 137.62,217.63 L87.54,217.61 Z M8.38,174 C7.16173308,172.082411 7.04764527,169.66375 8.08,167.64 C13.8947639,155.834795 25.9204471,148.367233 39.08,148.39 L44.08,148.389948 L44.08,177 L13.94,177 C11.688337,177.046183 9.57762092,175.907308 8.38,174 Z M51.45,148.89 C68.0215672,151.785912 80.1249309,166.157339 80.16,182.98 L80.16,217.1 C63.5825619,214.207186 51.476154,199.827928 51.45,183 L51.45,148.89 Z M172.29,42 L172.29,96.61 C168.813663,95.6973669 165.234136,95.236902 161.64,95.24 L143.57,95.24 L143.57,7.9 C159.439867,10.6403661 171.318824,23.9705052 172.22,40.05 C172.26,40.66 172.29,41.31 172.29,42 Z M136.19,95.21 L89,95.21 C88.2141408,95.2045043 87.5799808,94.5658784 87.58,93.78 L87.58,45 C87.5637942,44.6093446 87.7049571,44.2285124 87.9718716,43.9428011 C88.2387861,43.6570898 88.6091463,43.4903761 89,43.48 L136.19,43.48 L136.19,95.21 Z" id="Shape" fill="#262626" fill-rule="nonzero"></path>
            <circle id="Oval" fill="#262626" fill-rule="nonzero" cx="157.93" cy="114.89" r="6.79"></circle>
        </g>
    </g>
</svg>

<svg width="460" height="225" viewBox="0 0 460 225" xmlns="http://www.w3.org/2000/svg"><title>pycon_nove_logo</title><g fill="none" fill-rule="evenodd"><path d="M239.37 90.43v20.07h-10.56V55.79h18.71a23.74 23.74 0 0 1 8.08 1.3 18.11 18.11 0 0 1 6.14 3.61 15.7 15.7 0 0 1 3.91 5.54 18.21 18.21 0 0 1 1.35 7.18 16.71 16.71 0 0 1-1.37 6.8 15.6 15.6 0 0 1-3.91 5.39 18.19 18.19 0 0 1-6.14 3.55 24.08 24.08 0 0 1-8.08 1.28l-8.13-.01zm0-8.57h8.15a10.29 10.29 0 0 0 3.91-.67 7.86 7.86 0 0 0 2.76-1.84 7.51 7.51 0 0 0 1.65-2.69 9.33 9.33 0 0 0 .55-3.17 11.31 11.31 0 0 0-.55-3.57 8.06 8.06 0 0 0-1.65-2.92 7.78 7.78 0 0 0-2.76-2 9.81 9.81 0 0 0-3.91-.71h-8.15v17.57zm56.35 11.58l1.2 4.36 10.82-28h11.53l-20.63 46.74a31.13 31.13 0 0 1-1.75 3.34 15.75 15.75 0 0 1-2.69 3.34 14.13 14.13 0 0 1-3.93 2.59 13.1 13.1 0 0 1-5.47 1.05c-.5 0-1 0-1.39-.06-.39-.06-.84-.09-1.24-.15s-.79-.14-1.18-.22c-.39-.08-.81-.2-1.26-.32l1.28-8c.42 0 1 0 1.63.06.63.06 1.2.06 1.6.06a3.46 3.46 0 0 0 2.2-.75 8.89 8.89 0 0 0 1.63-1.65 14.25 14.25 0 0 0 1.09-1.65c.28-.5.46-.75.56-.75l2.52-4.74-17.18-38.84h11.42l9.24 23.59zm70.18-.07a20.78 20.78 0 0 1-1.79 7.44 17.33 17.33 0 0 1-4.08 5.64 17.75 17.75 0 0 1-6.09 3.59 23.16 23.16 0 0 1-7.81 1.26 19.83 19.83 0 0 1-8.6-1.78 17.56 17.56 0 0 1-6.31-5 22.72 22.72 0 0 1-3.91-7.72 34.41 34.41 0 0 1-1.31-9.93V79.5a32.87 32.87 0 0 1 1.43-10 23.21 23.21 0 0 1 4.06-7.74 18.26 18.26 0 0 1 6.37-5 19.27 19.27 0 0 1 8.4-1.79 23.39 23.39 0 0 1 8 1.28 16.38 16.38 0 0 1 9.9 9.43 25.82 25.82 0 0 1 1.8 7.7h-10.55a18 18 0 0 0-.73-4.28 8.12 8.12 0 0 0-1.68-3.03 6.94 6.94 0 0 0-2.78-1.84 11.58 11.58 0 0 0-4-.62 7.87 7.87 0 0 0-7.22 4.13 15.63 15.63 0 0 0-1.75 5 35.81 35.81 0 0 0-.56 6.71v7.44c0 5.387.757 9.37 2.27 11.95a7.74 7.74 0 0 0 7.2 3.87 9.33 9.33 0 0 0 6.54-2.2c1.6-1.467 2.49-3.84 2.67-7.12l10.53-.02zm9.1-3.57a25.47 25.47 0 0 1 1.28-8.21A18.91 18.91 0 0 1 380 75a17.31 17.31 0 0 1 6-4.36 21.78 21.78 0 0 1 16.29 0 17.24 17.24 0 0 1 6 4.36 18.88 18.88 0 0 1 3.74 6.56 25.47 25.47 0 0 1 1.28 8.21v.79a25.6 25.6 0 0 1-1.28 8.25 19.11 19.11 0 0 1-3.72 6.56 16.88 16.88 0 0 1-6 4.34 20.11 20.11 0 0 1-8.12 1.56 20.33 20.33 0 0 1-8.17-1.56 17 17 0 0 1-6-4.34 18.94 18.94 0 0 1-3.74-6.56 25.6 25.6 0 0 1-1.28-8.22v-.79zm10.44.79a22.43 22.43 0 0 0 .49 4.79 12.12 12.12 0 0 0 1.54 3.91 7.53 7.53 0 0 0 6.76 3.62 7.62 7.62 0 0 0 3.94-1 7.78 7.78 0 0 0 2.69-2.65 12.45 12.45 0 0 0 1.52-3.91 22.44 22.44 0 0 0 .49-4.79v-.76a21.77 21.77 0 0 0-.49-4.7 12.65 12.65 0 0 0-1.52-3.91 8.18 8.18 0 0 0-10.69-2.67 7.83 7.83 0 0 0-2.71 2.67A12.3 12.3 0 0 0 386 85.1a21.76 21.76 0 0 0-.49 4.7l-.07.79zm46.96-20.74l.64 5.64a15.44 15.44 0 0 1 5.3-4.72 14.38 14.38 0 0 1 6.91-1.67 16.83 16.83 0 0 1 5.63.9 11 11 0 0 1 4.42 2.88 13.49 13.49 0 0 1 2.89 5.07 24 24 0 0 1 1 7.53v25h-10.41V85.63a12.19 12.19 0 0 0-.54-4 5.73 5.73 0 0 0-1.56-2.46 5.66 5.66 0 0 0-2.44-1.26 13.31 13.31 0 0 0-3.23-.36 9.07 9.07 0 0 0-4.55 1.07 8.48 8.48 0 0 0-3 3v28.88h-10.53V69.85h9.47zM264.21 188.37h-10.52l-15.22-35.28v35.28h-10.63v-54.71h10.63l15.1 35.13v-35.13h10.6l.04 54.71zm11.05-20.7a25.47 25.47 0 0 1 1.28-8.21 18.91 18.91 0 0 1 3.74-6.56 17.31 17.31 0 0 1 6-4.36 21.78 21.78 0 0 1 16.29 0 17.24 17.24 0 0 1 6 4.36 18.88 18.88 0 0 1 3.74 6.56 25.47 25.47 0 0 1 1.28 8.21v.79a25.6 25.6 0 0 1-1.28 8.25 19.11 19.11 0 0 1-3.72 6.56 16.88 16.88 0 0 1-6 4.34 20.11 20.11 0 0 1-8.12 1.56 20.33 20.33 0 0 1-8.17-1.56 17 17 0 0 1-6-4.34 18.94 18.94 0 0 1-3.74-6.56 25.6 25.6 0 0 1-1.28-8.25l-.02-.79zm10.44.79a22.44 22.44 0 0 0 .49 4.79 12.12 12.12 0 0 0 1.54 3.91 7.53 7.53 0 0 0 6.76 3.62 7.62 7.62 0 0 0 3.94-1 7.78 7.78 0 0 0 2.69-2.65 12.45 12.45 0 0 0 1.52-3.91 22.45 22.45 0 0 0 .49-4.79v-.79a21.77 21.77 0 0 0-.49-4.7 12.65 12.65 0 0 0-1.52-3.91 8.18 8.18 0 0 0-10.69-2.67 7.83 7.83 0 0 0-2.71 2.67 12.3 12.3 0 0 0-1.52 3.97 21.76 21.76 0 0 0-.49 4.7l-.01.76zm53.03 7.85l.53 2.93.52-2.82 8.94-28.71h10.89l-15.44 40.66h-9.81l-15.52-40.65h10.9l8.99 28.59zm47.2 12.81a22.68 22.68 0 0 1-8.53-1.54 20.16 20.16 0 0 1-6.58-4.19 18.28 18.28 0 0 1-4.23-6.24 19.9 19.9 0 0 1-1.48-7.68V168a23.72 23.72 0 0 1 1.47-8.51 19.71 19.71 0 0 1 4.09-6.63 18.46 18.46 0 0 1 6.24-4.32 19.78 19.78 0 0 1 7.85-1.54 20.09 20.09 0 0 1 7.83 1.45 16.27 16.27 0 0 1 5.82 4.08 17.63 17.63 0 0 1 3.63 6.33 25.64 25.64 0 0 1 1.24 8.17v4.43h-27.57a11.37 11.37 0 0 0 1.22 3.78 10.31 10.31 0 0 0 5.62 4.86c1.283.46 2.637.69 4 .68 1.027 0 2.052-.1 3.06-.3a15.12 15.12 0 0 0 2.91-.88 13.2 13.2 0 0 0 2.59-1.45 10.15 10.15 0 0 0 2.1-2l5.22 5.64a14.88 14.88 0 0 1-2.54 2.72 17.13 17.13 0 0 1-3.68 2.37 23.77 23.77 0 0 1-4.71 1.67 23.37 23.37 0 0 1-5.57.57zm-1.24-33.7a8.18 8.18 0 0 0-3.23.62 7.62 7.62 0 0 0-2.57 1.79 10.3 10.3 0 0 0-1.89 2.77 15.13 15.13 0 0 0-1.13 3.61H393v-.83a9.91 9.91 0 0 0-.64-3.12 7.35 7.35 0 0 0-1.61-2.54 7.61 7.61 0 0 0-2.55-1.72 9.24 9.24 0 0 0-3.51-.58z" fill="#000" fill-rule="nonzero"/><path d="M87.55 45v48.81A1.43 1.43 0 0 0 89 95.24h47.22V43.48H89A1.46 1.46 0 0 0 87.55 45z"/><path d="M44.06 177v-28.66h-5a34.49 34.49 0 0 0-31 19.25 6.55 6.55 0 0 0 5.88 9.41h30.12zm128.23 6v-44.28h-28.72V180a8.86 8.86 0 0 1-8.85 8.85H87.54v28.71h50.11c.72 0 1.36 0 2-.06 18.29-1.063 32.592-16.18 32.64-34.5zM143.57 7.9v87.34h18.07a41.8 41.8 0 0 1 10.65 1.37V42c0-.72 0-1.37-.07-2-.924-16.06-12.797-29.364-28.65-32.1z" fill="#FD51D3" fill-rule="nonzero"/><path d="M80.16 217.1v-34.17c-.035-16.823-12.138-31.194-28.71-34.09V183c.026 16.828 12.133 31.207 28.71 34.1zm81.48-114.48H89a8.82 8.82 0 0 1-8.81-8.81V45A8.86 8.86 0 0 1 89 36.1h47.19V7.39h-50.1c-.73 0-1.37 0-2 .06C66.536 8.443 52.519 22.447 51.51 40c-.05.66-.07 1.31-.07 2v54.69c0 .72 0 1.37.07 2 1.019 17.55 15.011 31.56 32.56 32.6.65 0 1.29.06 2 .06h100.7a6.55 6.55 0 0 0 5.85-9.46 34.5 34.5 0 0 0-30.98-19.27zm-3.71 19.07a6.79 6.79 0 1 1 0-13.58 6.79 6.79 0 0 1 0 13.58z" fill="#3DFFD2" fill-rule="nonzero"/><path d="M199.23 118.58a42 42 0 0 0-19.56-19.29V42c0-.89 0-1.71-.08-2.45-1.151-19.957-16.21-36.337-36-39.16a42.56 42.56 0 0 0-5.93-.39H86.09c-.91 0-1.73 0-2.45.08-21.266 1.23-38.242 18.186-39.5 39.45a32.9 32.9 0 0 0-.08 2.49v54.67c0 .89 0 1.71.08 2.45 1.236 21.262 18.19 38.233 39.45 39.49.77.06 1.59.09 2.5.09h50.1V180a1.48 1.48 0 0 1-1.47 1.46h-47.2c-.724-20.346-15.916-37.253-36.07-40.14-.81-.07-3.45-.32-3.45-.32-.89-.05-8.91-.08-8.91-.08a41.85 41.85 0 0 0-37.62 23.37 13.93 13.93 0 0 0 12.47 20.14h30.15c.72 20.348 15.914 37.257 36.07 40.14a52.49 52.49 0 0 0 7.38.42h50.11c.89 0 1.7 0 2.44-.07 22.215-1.282 39.575-19.668 39.58-41.92v-44.28h7.1a13.94 13.94 0 0 0 12.46-20.14zm-6.91 9.65a6.41 6.41 0 0 1-5.55 3.1H86.09c-.73 0-1.37 0-2-.06-17.549-1.04-31.541-15.05-32.56-32.6-.05-.61-.07-1.26-.07-2V42c0-.71 0-1.36.07-2C52.54 22.443 66.562 8.438 84.12 7.45c.6 0 1.24-.06 2-.06h50.1V36.1H89a8.86 8.86 0 0 0-8.84 8.9v48.81a8.82 8.82 0 0 0 8.84 8.81h72.67a34.5 34.5 0 0 1 31 19.25 6.42 6.42 0 0 1-.35 6.36zM87.54 217.61V188.9h47.18a8.86 8.86 0 0 0 8.85-8.85v-41.33h28.72V183c-.012 18.358-14.342 33.52-32.67 34.57-.61 0-1.25.06-2 .06l-50.08-.02zM8.38 174a6.42 6.42 0 0 1-.3-6.36 34.49 34.49 0 0 1 31-19.25h5V177H13.94a6.41 6.41 0 0 1-5.56-3zm43.07-25.11c16.572 2.896 28.675 17.267 28.71 34.09v34.12c-16.577-2.893-28.684-17.272-28.71-34.1v-34.11zM172.29 42v54.61a41.8 41.8 0 0 0-10.65-1.37h-18.07V7.9c15.87 2.74 27.749 16.07 28.65 32.15.04.61.07 1.26.07 1.95zm-36.1 53.21H89a1.43 1.43 0 0 1-1.42-1.43V45A1.46 1.46 0 0 1 89 43.48h47.19v51.73z" fill="#262626" fill-rule="nonzero"/><circle fill="#262626" fill-rule="nonzero" cx="157.93" cy="114.89" r="6.79"/></g></svg>
